image/ection-twacs-item-img9.svg

<svg fill="none" height="32" viewBox="0 0 32 32" width="32" xmlns="http://www.w3.org/2000/svg"><g fill="#4b4b4b"><path d="m16 30c-7.73199 0-14-6.268-14-14 0-7.73199 6.26801-14 14-14 7.732 0 14 6.26801 14 14 0 7.732-6.268 14-14 14zm0 2c8.8366 0 16-7.1634 16-16 0-8.83656-7.1634-16-16-16-8.83656 0-16 7.16344-16 16 0 8.8366 7.16344 16 16 16z"/><path d="m16 8c.5523 0 1 .44771 1 1v6h6c.5523 0 1 .4477 1 1s-.4477 1-1 1h-6v6c0 .5523-.4477 1-1 1s-1-.4477-1-1v-6h-6c-.55229 0-1-.4477-1-1s.44771-1 1-1h6v-6c0-.55229.4477-1 1-1z"/></g></svg>

<svg width="32" height="32" viewBox="0 0 32 32" fill="none" xmlns="http://www.w3.org/2000/svg">
<path d="M16 30C8.26801 30 2 23.732 2 16C2 8.26801 8.26801 2 16 2C23.732 2 30 8.26801 30 16C30 23.732 23.732 30 16 30ZM16 32C24.8366 32 32 24.8366 32 16C32 7.16344 24.8366 0 16 0C7.16344 0 0 7.16344 0 16C0 24.8366 7.16344 32 16 32Z" fill="#4B4B4B"/>
<path d="M16 8C16.5523 8 17 8.44771 17 9V15H23C23.5523 15 24 15.4477 24 16C24 16.5523 23.5523 17 23 17H17V23C17 23.5523 16.5523 24 16 24C15.4477 24 15 23.5523 15 23V17H9C8.44771 17 8 16.5523 8 16C8 15.4477 8.44771 15 9 15H15V9C15 8.44771 15.4477 8 16 8Z" fill="#4B4B4B"/>
</svg>
